assets/icons/health.svg

<svg width="24" height="25" viewBox="0 0 24 25" fill="none" xmlns="http://www.w3.org/2000/svg">
<path d="M19.4397 5.49356C19.3924 5.49716 14.5516 5.90758 12.2495 3.76557C12.1827 3.70149 12.0932 3.66565 12 3.66565C11.9069 3.66565 11.8174 3.70149 11.7505 3.76557C9.44847 5.90758 4.6113 5.49716 4.56031 5.49356C4.45832 5.48276 4.35997 5.51876 4.28348 5.58716C4.20699 5.65556 4.16328 5.74918 4.16328 5.84998V9.18713C4.16328 20.3363 11.8671 21.6503 11.9435 21.6611C11.9618 21.6647 11.9836 21.6647 12.0018 21.6647C12.02 21.6647 12.0383 21.6647 12.0565 21.6611C12.1329 21.6503 19.8368 20.3363 19.8368 9.18713V5.84998C19.8366 5.80008 19.826 5.75078 19.8055 5.70523C19.785 5.65962 19.7551 5.61876 19.7178 5.58523C19.6804 5.55169 19.6364 5.52622 19.5885 5.51044C19.5406 5.49466 19.49 5.48891 19.4397 5.49356ZM15.892 13.5791C15.892 13.7771 15.728 13.9391 15.5277 13.9391H13.284V16.1567C13.284 16.3547 13.1201 16.5167 12.9198 16.5167H11.0767C10.8763 16.5167 10.7124 16.3547 10.7124 16.1567V13.9391H8.46864C8.26831 13.9391 8.10442 13.7771 8.10442 13.5791V11.7575C8.10442 11.5595 8.26831 11.3975 8.46864 11.3975H10.7124V9.17993C10.7124 8.98193 10.8763 8.81993 11.0767 8.81993H12.9198C13.1201 8.81993 13.284 8.98193 13.284 9.17993V11.3975H15.5277C15.728 11.3975 15.892 11.5595 15.892 11.7575V13.5791Z" fill="white"/>
</svg>

<svg xmlns="http://www.w3.org/2000/svg" width="24" height="25" fill="none" viewBox="0 0 24 25"><path fill="#fff" d="M19.44 5.494c-.048.003-4.888.414-7.19-1.728a.36.36 0 0 0-.5 0C9.449 5.908 4.612 5.497 4.56 5.494a.36.36 0 0 0-.277.093.35.35 0 0 0-.12.263v3.337c0 11.15 7.704 12.463 7.78 12.474q.03.005.059.004.027.001.054-.004c.077-.01 7.78-1.325 7.78-12.474V5.85a.36.36 0 0 0-.247-.34.4.4 0 0 0-.15-.016m-3.548 8.085c0 .198-.164.36-.364.36h-2.244v2.218c0 .198-.164.36-.364.36h-1.843a.363.363 0 0 1-.365-.36v-2.218H8.47a.363.363 0 0 1-.365-.36v-1.822c0-.197.164-.36.365-.36h2.243V9.18c0-.198.164-.36.365-.36h1.843c.2 0 .364.162.364.36v2.218h2.244c.2 0 .364.162.364.36z"/></svg>
